Newaita-dark/apps/64/openarena.svg

<svg height="64" viewBox="0 0 64 64" width="64" xmlns="http://www.w3.org/2000/svg" xmlns:xlink="http://www.w3.org/1999/xlink"><linearGradient id="a" gradientUnits="userSpaceOnUse" x1="31.75304" x2="31.75304" y1="56.067872" y2="58.71396000006"><stop offset="0" stop-opacity=".27451"/><stop offset="1" stop-opacity="0"/></linearGradient><linearGradient id="b"><stop offset="0" stop-opacity=".313726"/><stop offset=".222222" stop-opacity=".27451"/><stop offset="1" stop-opacity="0"/></linearGradient><radialGradient id="c" cx="450.908936" cy="189.579361" gradientTransform="matrix(.00000035 -.156265 -.281277 -.0000002 106.24586 127.190665)" gradientUnits="userSpaceOnUse" r="21.166656" xlink:href="#b"/><radialGradient id="d" cx="450.908936" cy="189.579361" gradientTransform="matrix(-.00000035 .156265 .281277 .0000002 -42.409041 -15.054958)" gradientUnits="userSpaceOnUse" r="21.166656" xlink:href="#b"/><radialGradient id="e" cx="450.908936" cy="189.579361" gradientTransform="matrix(-.00000035 -.156265 .281277 -.0000002 -42.409041 127.190665)" gradientUnits="userSpaceOnUse" r="21.166656" xlink:href="#b"/><radialGradient id="f" cx="450.908936" cy="189.579361" gradientTransform="matrix(.00000035 .156265 -.281277 .0000002 106.245857 -15.054959)" gradientUnits="userSpaceOnUse" r="21.166656" xlink:href="#b"/><linearGradient id="g" gradientTransform="matrix(.118761 0 0 .125012 1.587661 26.877565)" gradientUnits="userSpaceOnUse" x1="254" x2="254" y1="233.5" y2="-168.666672"><stop offset="0" stop-color="#5c6bc0"/><stop offset="1" stop-color="#7986cb"/></linearGradient><linearGradient id="h" gradientUnits="userSpaceOnUse" x1="31.753048" x2="31.753048" y1="56.067868" y2="5.79221000013"><stop offset="0" stop-color="#bdbdbd"/><stop offset="1" stop-color="#e0e0e0"/></linearGradient><path d="m10.253906 56.066406h43.328125v2.648438h-43.328125zm0 0" fill="url(#a)"/><path d="m53.582031 56.066406h5.292969v-2.644531h-5.292969zm0 0" fill="url(#c)"/><path d="m10.253906 56.066406h-5.292968v2.648438h5.292968zm0 0" fill="url(#d)"/><path d="m10.253906 56.066406h-5.292968v-2.644531h5.292968zm0 0" fill="url(#e)"/><path d="m53.582031 56.066406h5.292969v2.648438h-5.292969zm0 0" fill="url(#f)"/><path d="m9.261719 5.792969h44.984375c1.460937 0 2.644531 1.183593 2.644531 2.644531v44.984375c0 1.460937-1.183594 2.644531-2.644531 2.644531h-44.984375c-1.460938 0-2.648438-1.183594-2.648438-2.644531v-44.984375c0-1.460938 1.1875-2.644531 2.648438-2.644531zm0 0" fill="url(#g)"/><path d="m9.261719 5.792969c-1.464844 0-2.648438 1.179687-2.648438 2.644531v.636719c0-1.464844 1.183594-2.644531 2.648438-2.644531h44.984375c1.464844 0 2.644531 1.179687 2.644531 2.644531v-.636719c0-1.464844-1.179687-2.644531-2.644531-2.644531zm0 0" fill="#fff" fill-opacity=".392157"/><path d="m9.261719 56.066406c-1.464844 0-2.648438-1.179687-2.648438-2.644531v-.992187c0 1.464843 1.183594 2.644531 2.648438 2.644531h44.984375c1.464844 0 2.644531-1.179688 2.644531-2.644531v.992187c0 1.464844-1.179687 2.644531-2.644531 2.644531zm0 0" fill-opacity=".235294"/><path d="m74.086675-168.660675h359.840637c11.686384 0 21.15423 9.467846 21.15423 21.15423v359.840637c0 11.686384-9.467846 21.154229-21.15423 21.154229h-359.840637c-11.686384 0-21.185477-9.467845-21.185477-21.154229v-359.840637c0-11.686384 9.499093-21.15423 21.185477-21.15423zm0 0" fill="none" stroke="#212121" stroke-linecap="round" stroke-width="3" transform="matrix(.125012 0 0 .125012 0 26.877566)"/><path d="m31.753906 17.097656c-4.234375.003906-8.460937 1.039063-11.683594 3.089844-7.089843 4.5-7.578124 12.292969-1.066406 17.078125.601563.433594 1.144532.835937 1.214844.886719l-1.804688 3.207031 3.710938 2.699219 9.628906-16.023438 9.628906 16.023438 3.707032-2.699219-1.800782-3.207031c.070313-.050782.613282-.453125 1.210938-.886719 6.511719-4.785156 6.027344-12.578125-1.066406-17.078125-3.222656-2.050781-7.449219-3.085938-11.679688-3.089844zm-.976562 1.925782-8.664063 15.40625c-9.628906-7.703126.960938-15.40625 8.664063-15.40625zm1.9375 0c7.703125 0 18.296875 7.703124 8.667968 15.40625zm-.960938 13.480468-3.851562 5.773438 3.851562 5.78125 3.851563-5.78125zm0 0" fill="url(#h)"/><path d="m31.753906 17.097656c-4.234375.003906-8.460937 1.039063-11.683594 3.089844-3.875 2.457031-5.777343 5.902344-5.644531 9.296875.125-3.175781 2.023438-6.335937 5.644531-8.636719 3.222657-2.050781 7.449219-3.085937 11.683594-3.089844 4.230469.003907 8.457032 1.039063 11.679688 3.089844 3.625 2.300782 5.523437 5.457032 5.644531 8.636719.132813-3.398437-1.769531-6.839844-5.644531-9.296875-3.222656-2.050781-7.449219-3.085938-11.679688-3.089844zm-.976562 2.585938c-.125 0-.25.003906-.375.007812l-8.289063 14.738282c-2.589843-2.070313-3.714843-4.140626-3.832031-6.0625-.125 2.101562.941406 4.414062 3.832031 6.722656zm1.9375 0 8.667968 15.40625c2.886719-2.308594 3.957032-4.621094 3.828126-6.722656-.113282 1.921874-1.242188 3.992187-3.828126 6.0625l-8.292968-14.738282c-.125-.003906-.25-.007812-.375-.007812zm-.960938 12.820312-3.851562 5.773438.21875.332031 3.632812-5.445313 3.628906 5.445313.222657-.332031zm-11.796875 6.117188-1.542969 2.738281.265626.191406 1.539062-2.734375c-.027344-.019531-.132812-.097656-.261719-.195312zm23.59375 0c-.132812.097656-.238281.175781-.261719.195312l1.539063 2.734375.261719-.191406zm0 0" fill="#fff" fill-opacity=".784314"/><path d="m30.777344 18.953125c-5.789063 0-13.214844 4.351563-12.449219 9.789063.625-4.429688 6.503906-7.839844 11.558594-8.207032zm1.9375 0 .890625 1.582031c5.054687.367188 10.9375 3.777344 11.5625 8.207032.761719-5.4375-6.660157-9.789063-12.453125-9.789063zm-.960938 9.011719-9.628906 16.023437-3.089844-2.25-.621094 1.097657 3.710938 2.703124 9.628906-16.023437 9.628906 16.023437 3.707032-2.703124-.617188-1.097657-3.089844 2.25zm17.296875 1.890625c-.246093 2.667969-1.75 5.28125-4.550781 7.339843-.597656.433594-1.140625.835938-1.210938.886719l.617188 1.097657c.179688-.132813.378906-.28125.59375-.433594 3.339844-2.457032 4.839844-5.703125 4.550781-8.890625zm-34.59375 0c-.289062 3.1875 1.207031 6.433593 4.546875 8.890625.21875.152344.417969.300781.597656.433594l.617188-1.097657c-.070312-.050781-.613281-.453125-1.214844-.886719-2.796875-2.058593-4.304687-4.667968-4.546875-7.339843zm13.960938 9.125-.515625.777343 3.851562 5.78125 3.851563-5.78125-.515625-.777343-3.335938 5.007812zm0 0" fill-opacity=".235294"/><path d="m254.006994-78.231811c-33.871766.031247-67.681037 8.311707-93.459825 24.71639-56.713335 35.996562-60.619212 98.33436-8.530436 136.611954 4.812041 3.468419 9.155376 6.686862 9.717822 7.093073l-14.436121 25.6538 29.684665 21.591688 77.023895-128.17526 77.023894 128.17526 29.653418-21.591688-14.404874-25.6538c.562446-.406211 4.905781-3.624654 9.686575-7.093073 52.088776-38.277594 48.214146-100.615392-8.530435-136.611954-25.778789-16.404683-59.58806-24.685143-93.428578-24.71639zm-7.811754 15.404779-69.305882 123.238232c-77.023895-61.619116 7.686766-123.238232 69.305882-123.238232zm15.498519 0c61.619116 0 146.361024 61.619116 69.337129 123.238232zm-7.686765 107.833453-30.809558 46.183089 30.809558 46.245584 30.809557-46.245584zm0 0" fill="none" stroke="#212121" stroke-width="3" transform="matrix(.125012 0 0 .125012 0 26.877566)"/></svg>

<?xml version="1.0" encoding="UTF-8"?>
<svg xmlns="http://www.w3.org/2000/svg" xmlns:xlink="http://www.w3.org/1999/xlink" width="64px" height="64px" viewBox="0 0 64 64" version="1.1">
<defs>
<linearGradient id="linear0" gradientUnits="userSpaceOnUse" x1="254" y1="233.5" x2="254" y2="254.666672" gradientTransform="matrix(0.125012,0,0,0.125012,-0.00000763012,26.87757)">
<stop offset="0" style="stop-color:rgb(0%,0%,0%);stop-opacity:0.27451;"/>
<stop offset="1" style="stop-color:rgb(0%,0%,0%);stop-opacity:0;"/>
</linearGradient>
<radialGradient id="radial0" gradientUnits="userSpaceOnUse" cx="450.908936" cy="189.579361" fx="450.908936" fy="189.579361" r="21.166656" gradientTransform="matrix(0.000000348341,-0.156265,-0.281277,-0.000000203077,106.24586,127.190665)">
<stop offset="0" style="stop-color:rgb(0%,0%,0%);stop-opacity:0.313726;"/>
<stop offset="0.222222" style="stop-color:rgb(0%,0%,0%);stop-opacity:0.27451;"/>
<stop offset="1" style="stop-color:rgb(0%,0%,0%);stop-opacity:0;"/>
</radialGradient>
<radialGradient id="radial1" gradientUnits="userSpaceOnUse" cx="450.908936" cy="189.579361" fx="450.908936" fy="189.579361" r="21.166656" gradientTransform="matrix(-0.000000348341,0.156265,0.281277,0.000000203077,-42.409041,-15.054958)">
<stop offset="0" style="stop-color:rgb(0%,0%,0%);stop-opacity:0.313726;"/>
<stop offset="0.222222" style="stop-color:rgb(0%,0%,0%);stop-opacity:0.27451;"/>
<stop offset="1" style="stop-color:rgb(0%,0%,0%);stop-opacity:0;"/>
</radialGradient>
<radialGradient id="radial2" gradientUnits="userSpaceOnUse" cx="450.908936" cy="189.579361" fx="450.908936" fy="189.579361" r="21.166656" gradientTransform="matrix(-0.000000348341,-0.156265,0.281277,-0.000000203077,-42.409041,127.190665)">
<stop offset="0" style="stop-color:rgb(0%,0%,0%);stop-opacity:0.313726;"/>
<stop offset="0.222222" style="stop-color:rgb(0%,0%,0%);stop-opacity:0.27451;"/>
<stop offset="1" style="stop-color:rgb(0%,0%,0%);stop-opacity:0;"/>
</radialGradient>
<radialGradient id="radial3" gradientUnits="userSpaceOnUse" cx="450.908936" cy="189.579361" fx="450.908936" fy="189.579361" r="21.166656" gradientTransform="matrix(0.000000348341,0.156265,-0.281277,0.000000203077,106.245857,-15.054959)">
<stop offset="0" style="stop-color:rgb(0%,0%,0%);stop-opacity:0.313726;"/>
<stop offset="0.222222" style="stop-color:rgb(0%,0%,0%);stop-opacity:0.27451;"/>
<stop offset="1" style="stop-color:rgb(0%,0%,0%);stop-opacity:0;"/>
</radialGradient>
<linearGradient id="linear1" gradientUnits="userSpaceOnUse" x1="254" y1="233.5" x2="254" y2="-168.666672" gradientTransform="matrix(0.118761,0,0,0.125012,1.587661,26.877565)">
<stop offset="0" style="stop-color:rgb(36.078432%,41.960785%,75.294119%);stop-opacity:1;"/>
<stop offset="1" style="stop-color:rgb(47.450981%,52.549022%,79.607844%);stop-opacity:1;"/>
</linearGradient>
<linearGradient id="linear2" gradientUnits="userSpaceOnUse" x1="254" y1="233.5" x2="254" y2="-168.666656" gradientTransform="matrix(0.125012,0,0,0.125012,0,26.877566)">
<stop offset="0" style="stop-color:rgb(74.117649%,74.117649%,74.117649%);stop-opacity:1;"/>
<stop offset="1" style="stop-color:rgb(87.843138%,87.843138%,87.843138%);stop-opacity:1;"/>
</linearGradient>
</defs>
<g id="surface1">
<path style=" stroke:none;fill-rule:nonzero;fill:url(#linear0);" d="M 10.253906 56.066406 L 53.582031 56.066406 L 53.582031 58.714844 L 10.253906 58.714844 Z M 10.253906 56.066406 "/>
<path style=" stroke:none;fill-rule:nonzero;fill:url(#radial0);" d="M 53.582031 56.066406 L 58.875 56.066406 L 58.875 53.421875 L 53.582031 53.421875 Z M 53.582031 56.066406 "/>
<path style=" stroke:none;fill-rule:nonzero;fill:url(#radial1);" d="M 10.253906 56.066406 L 4.960938 56.066406 L 4.960938 58.714844 L 10.253906 58.714844 Z M 10.253906 56.066406 "/>
<path style=" stroke:none;fill-rule:nonzero;fill:url(#radial2);" d="M 10.253906 56.066406 L 4.960938 56.066406 L 4.960938 53.421875 L 10.253906 53.421875 Z M 10.253906 56.066406 "/>
<path style=" stroke:none;fill-rule:nonzero;fill:url(#radial3);" d="M 53.582031 56.066406 L 58.875 56.066406 L 58.875 58.714844 L 53.582031 58.714844 Z M 53.582031 56.066406 "/>
<path style=" stroke:none;fill-rule:nonzero;fill:url(#linear1);" d="M 9.261719 5.792969 L 54.246094 5.792969 C 55.707031 5.792969 56.890625 6.976562 56.890625 8.4375 L 56.890625 53.421875 C 56.890625 54.882812 55.707031 56.066406 54.246094 56.066406 L 9.261719 56.066406 C 7.800781 56.066406 6.613281 54.882812 6.613281 53.421875 L 6.613281 8.4375 C 6.613281 6.976562 7.800781 5.792969 9.261719 5.792969 Z M 9.261719 5.792969 "/>
<path style=" stroke:none;fill-rule:nonzero;fill:rgb(100%,100%,100%);fill-opacity:0.392157;" d="M 9.261719 5.792969 C 7.796875 5.792969 6.613281 6.972656 6.613281 8.4375 L 6.613281 9.074219 C 6.613281 7.609375 7.796875 6.429688 9.261719 6.429688 L 54.246094 6.429688 C 55.710938 6.429688 56.890625 7.609375 56.890625 9.074219 L 56.890625 8.4375 C 56.890625 6.972656 55.710938 5.792969 54.246094 5.792969 Z M 9.261719 5.792969 "/>
<path style=" stroke:none;fill-rule:nonzero;fill:rgb(0%,0%,0%);fill-opacity:0.235294;" d="M 9.261719 56.066406 C 7.796875 56.066406 6.613281 54.886719 6.613281 53.421875 L 6.613281 52.429688 C 6.613281 53.894531 7.796875 55.074219 9.261719 55.074219 L 54.246094 55.074219 C 55.710938 55.074219 56.890625 53.894531 56.890625 52.429688 L 56.890625 53.421875 C 56.890625 54.886719 55.710938 56.066406 54.246094 56.066406 Z M 9.261719 56.066406 "/>
<path style="fill:none;stroke-width:3;stroke-linecap:round;stroke-linejoin:miter;stroke:rgb(12.941177%,12.941177%,12.941177%);stroke-opacity:1;stroke-miterlimit:4;" d="M 74.086675 -168.660675 L 433.927312 -168.660675 C 445.613696 -168.660675 455.081542 -159.192829 455.081542 -147.506445 L 455.081542 212.334192 C 455.081542 224.020576 445.613696 233.488421 433.927312 233.488421 L 74.086675 233.488421 C 62.400291 233.488421 52.901198 224.020576 52.901198 212.334192 L 52.901198 -147.506445 C 52.901198 -159.192829 62.400291 -168.660675 74.086675 -168.660675 Z M 74.086675 -168.660675 " transform="matrix(0.125012,0,0,0.125012,0,26.877566)"/>
<path style=" stroke:none;fill-rule:nonzero;fill:url(#linear2);" d="M 31.753906 17.097656 C 27.519531 17.101562 23.292969 18.136719 20.070312 20.1875 C 12.980469 24.6875 12.492188 32.480469 19.003906 37.265625 C 19.605469 37.699219 20.148438 38.101562 20.21875 38.152344 L 18.414062 41.359375 L 22.125 44.058594 L 31.753906 28.035156 L 41.382812 44.058594 L 45.089844 41.359375 L 43.289062 38.152344 C 43.359375 38.101562 43.902344 37.699219 44.5 37.265625 C 51.011719 32.480469 50.527344 24.6875 43.433594 20.1875 C 40.210938 18.136719 35.984375 17.101562 31.753906 17.097656 Z M 30.777344 19.023438 L 22.113281 34.429688 C 12.484375 26.726562 23.074219 19.023438 30.777344 19.023438 Z M 32.714844 19.023438 C 40.417969 19.023438 51.011719 26.726562 41.382812 34.429688 Z M 31.753906 32.503906 L 27.902344 38.277344 L 31.753906 44.058594 L 35.605469 38.277344 Z M 31.753906 32.503906 "/>
<path style=" stroke:none;fill-rule:nonzero;fill:rgb(100%,100%,100%);fill-opacity:0.784314;" d="M 31.753906 17.097656 C 27.519531 17.101562 23.292969 18.136719 20.070312 20.1875 C 16.195312 22.644531 14.292969 26.089844 14.425781 29.484375 C 14.550781 26.308594 16.449219 23.148438 20.070312 20.847656 C 23.292969 18.796875 27.519531 17.761719 31.753906 17.757812 C 35.984375 17.761719 40.210938 18.796875 43.433594 20.847656 C 47.058594 23.148438 48.957031 26.304688 49.078125 29.484375 C 49.210938 26.085938 47.308594 22.644531 43.433594 20.1875 C 40.210938 18.136719 35.984375 17.101562 31.753906 17.097656 Z M 30.777344 19.683594 C 30.652344 19.683594 30.527344 19.6875 30.402344 19.691406 L 22.113281 34.429688 C 19.523438 32.359375 18.398438 30.289062 18.28125 28.367188 C 18.15625 30.46875 19.222656 32.78125 22.113281 35.089844 Z M 32.714844 19.683594 L 41.382812 35.089844 C 44.269531 32.78125 45.339844 30.46875 45.210938 28.367188 C 45.097656 30.289062 43.96875 32.359375 41.382812 34.429688 L 33.089844 19.691406 C 32.964844 19.6875 32.839844 19.683594 32.714844 19.683594 Z M 31.753906 32.503906 L 27.902344 38.277344 L 28.121094 38.609375 L 31.753906 33.164062 L 35.382812 38.609375 L 35.605469 38.277344 Z M 19.957031 38.621094 L 18.414062 41.359375 L 18.679688 41.550781 L 20.21875 38.816406 C 20.191406 38.796875 20.085938 38.71875 19.957031 38.621094 Z M 43.550781 38.621094 C 43.417969 38.71875 43.3125 38.796875 43.289062 38.816406 L 44.828125 41.550781 L 45.089844 41.359375 Z M 43.550781 38.621094 "/>
<path style=" stroke:none;fill-rule:nonzero;fill:rgb(0%,0%,0%);fill-opacity:0.235294;" d="M 30.777344 18.953125 C 24.988281 18.953125 17.5625 23.304688 18.328125 28.742188 C 18.953125 24.3125 24.832031 20.902344 29.886719 20.535156 Z M 32.714844 18.953125 L 33.605469 20.535156 C 38.660156 20.902344 44.542969 24.3125 45.167969 28.742188 C 45.929688 23.304688 38.507812 18.953125 32.714844 18.953125 Z M 31.753906 27.964844 L 22.125 43.988281 L 19.035156 41.738281 L 18.414062 42.835938 L 22.125 45.539062 L 31.753906 29.515625 L 41.382812 45.539062 L 45.089844 42.835938 L 44.472656 41.738281 L 41.382812 43.988281 Z M 49.050781 29.855469 C 48.804688 32.523438 47.300781 35.136719 44.5 37.195312 C 43.902344 37.628906 43.359375 38.03125 43.289062 38.082031 L 43.90625 39.179688 C 44.085938 39.046875 44.285156 38.898438 44.5 38.746094 C 47.839844 36.289062 49.339844 33.042969 49.050781 29.855469 Z M 14.457031 29.855469 C 14.167969 33.042969 15.664062 36.289062 19.003906 38.746094 C 19.222656 38.898438 19.421875 39.046875 19.601562 39.179688 L 20.21875 38.082031 C 20.148438 38.03125 19.605469 37.628906 19.003906 37.195312 C 16.207031 35.136719 14.699219 32.527344 14.457031 29.855469 Z M 28.417969 38.980469 L 27.902344 39.757812 L 31.753906 45.539062 L 35.605469 39.757812 L 35.089844 38.980469 L 31.753906 43.988281 Z M 28.417969 38.980469 "/>
<path style="fill:none;stroke-width:3;stroke-linecap:butt;stroke-linejoin:miter;stroke:rgb(12.941177%,12.941177%,12.941177%);stroke-opacity:1;stroke-miterlimit:4;" d="M 254.006994 -78.231811 C 220.135228 -78.200564 186.325957 -69.920104 160.547169 -53.515421 C 103.833834 -17.518859 99.927957 44.818939 152.016733 83.096533 C 156.828774 86.564952 161.172109 89.783395 161.734555 90.189606 L 147.298434 115.843406 L 176.983099 137.435094 L 254.006994 9.259834 L 331.030888 137.435094 L 360.684306 115.843406 L 346.279432 90.189606 C 346.841878 89.783395 351.185213 86.564952 355.966007 83.096533 C 408.054783 44.818939 404.180153 -17.518859 347.435572 -53.515421 C 321.656783 -69.920104 287.847512 -78.200564 254.006994 -78.231811 Z M 246.19524 -62.827032 L 176.889358 60.4112 C 99.865463 -1.207916 184.576124 -62.827032 246.19524 -62.827032 Z M 261.693759 -62.827032 C 323.312875 -62.827032 408.054783 -1.207916 331.030888 60.4112 Z M 254.006994 45.006421 L 223.197436 91.18951 L 254.006994 137.435094 L 284.816551 91.18951 Z M 254.006994 45.006421 " transform="matrix(0.125012,0,0,0.125012,0,26.877566)"/>
</g>
</svg>
